X:1342
T:Halling från Härjedalen efter Per Myhr
O:Glöte, Härjedalen
B:EÖ, nr 700
R:Halling
S:efter Per Myhr
Z:Nils L
M:2/4
L:1/8
K:D
aa/b/ af/a/ | ge/g/ fd | .a(a/b/) .a(f/a/) | .g(e/f/) d2 ::
Pgf d>c | APc/B/ GA | F>E CD | FA "^#?"^GA | FE/D/ CD | FA GA | f>e dc | d2 dz :|
(:musicend:)
(:music:)
